;FLAVOR:UltiGCode
;TIME:949
;MATERIAL:2403
;MATERIAL2:0
;NOZZLE_DIAMETER:0.4
;MINX:91.56
;MINY:91.56
;MINZ:0.27
;MAXX:131.44
;MAXY:131.44
;MAXZ:15.87
;Generated with Cura_SteamEngine 5.4.0
M82 ;absolute extrusion mode
G0 F3000 Y50 ;avoid prime blob
G92 E0
G92 E0
G10
;LAYER_COUNT:53
;LAYER:0
M107
G0 F9000 X93.09 Y94.633 Z0.27
;TYPE:SKIRT
G11
G1 F1800 X95.236 Y92.551 E0.32292
G1 X98.293 Y91.56 E0.66999
G1 X125.009 Y91.56 E3.55532
G1 X127.627 Y92.45 E3.85395
G1 X127.943 Y92.65 E3.89434
G1 X130.436 Y95.217 E4.2808
G1 X131.439 Y98.289 E4.62982
G1 X131.44 Y124.619 E7.47346
G1 X131.02 Y126.547 E7.68656
G1 X129.91 Y128.367 E7.9168
G1 X127.764 Y130.449 E8.23971
G1 X124.707 Y131.44 E8.58678
G1 X98.381 Y131.439 E11.42999
G1 X96.453 Y131.019 E11.6431
G1 X94.633 Y129.909 E11.87333
G1 X92.551 Y127.763 E12.19625
G1 X91.56 Y124.706 E12.54332
G1 X91.56 Y98.381 E15.38642
G1 X91.98 Y96.453 E15.59953
G1 X93.09 Y94.633 E15.82976
G0 F9000 X93.403 Y94.887
G1 F1800 X95.448 Y92.903 E16.13748
G1 X98.357 Y91.96 E16.46775
G1 X124.942 Y91.96 E19.33893
G1 X127.498 Y92.829 E19.6305
G1 X127.656 Y92.929 E19.65069
G1 X130.085 Y95.43 E20.02722
G1 X131.039 Y98.352 E20.35919
G1 X131.04 Y124.575 E23.19128
G1 X130.643 Y126.398 E23.39277
G1 X129.597 Y128.113 E23.60973
G1 X127.552 Y130.097 E23.91745
G1 X124.643 Y131.04 E24.24771
G1 X98.425 Y131.039 E27.07926
G1 X96.602 Y130.642 E27.28076
G1 X94.887 Y129.596 E27.49771
G1 X92.903 Y127.551 E27.80543
G1 X91.96 Y124.642 E28.13569
G1 X91.96 Y98.425 E30.96713
G1 X92.357 Y96.602 E31.16863
G1 X93.403 Y94.887 E31.38558
G0 F9000 X93.716 Y95.141
G1 F1800 X95.66 Y93.255 E31.6781
G1 X98.421 Y92.36 E31.99157
G1 X124.875 Y92.36 E34.8486
G1 X127.369 Y93.208 E35.13309
G1 X129.734 Y95.643 E35.4997
G1 X130.639 Y98.415 E35.81462
G1 X130.64 Y124.531 E38.63515
G1 X130.266 Y126.249 E38.82504
G1 X129.284 Y127.859 E39.02871
G1 X127.34 Y129.745 E39.32123
G1 X124.579 Y130.64 E39.6347
G1 X98.469 Y130.639 E42.45458
G1 X96.751 Y130.265 E42.64447
G1 X95.141 Y129.283 E42.84814
G1 X93.255 Y127.339 E43.14066
G1 X92.36 Y124.578 E43.45412
G1 X92.36 Y98.469 E46.2739
G1 X92.734 Y96.751 E46.46379
G1 X93.716 Y95.141 E46.66746
G0 F9000 X94.029 Y95.395
G1 F1800 X95.872 Y93.607 E46.94478
G1 X98.485 Y92.76 E47.24144
G1 X124.808 Y92.76 E50.08432
G1 X127.149 Y93.556 E50.35137
G1 X129.383 Y95.856 E50.69765
G1 X130.239 Y98.478 E50.99554
G1 X130.24 Y124.487 E53.80451
G1 X129.889 Y126.1 E53.98279
G1 X128.971 Y127.605 E54.17318
G1 X127.128 Y129.393 E54.45051
G1 X124.515 Y130.24 E54.74716
G1 X98.513 Y130.239 E57.55538
G1 X96.9 Y129.888 E57.73366
G1 X95.395 Y128.97 E57.92405
G1 X93.607 Y127.127 E58.20138
G1 X92.76 Y124.514 E58.49803
G1 X92.76 Y98.513 E61.30614
G1 X93.111 Y96.9 E61.48442
G1 X94.029 Y95.395 E61.67481
G0 F9000 X94.342 Y95.649
G1 F1800 X96.084 Y93.959 E61.93694
G1 X98.549 Y93.16 E62.21679
G1 X124.741 Y93.16 E65.04553
G1 X126.929 Y93.904 E65.29512
G1 X129.032 Y96.069 E65.62109
G1 X129.839 Y98.541 E65.90194
G1 X129.84 Y124.443 E68.69935
G1 X129.512 Y125.951 E68.86602
G1 X128.658 Y127.351 E69.04313
G1 X126.916 Y129.041 E69.30526
G1 X124.451 Y129.84 E69.58511
G1 X98.557 Y129.839 E72.38167
G1 X97.049 Y129.511 E72.54834
G1 X95.649 Y128.657 E72.72545
G1 X93.959 Y126.915 E72.98757
G1 X93.16 Y124.45 E73.26743
G1 X93.16 Y98.557 E76.06387
G1 X93.488 Y97.049 E76.23054
G1 X94.342 Y95.649 E76.40765
G0 F9000 X94.655 Y95.903
G1 F1800 X96.296 Y94.311 E76.65458
G1 X98.613 Y93.56 E76.91763
G1 X124.674 Y93.56 E79.73222
G1 X126.709 Y94.252 E79.96436
G1 X128.681 Y96.282 E80.27001
G1 X129.439 Y98.604 E80.53381
G1 X129.44 Y124.399 E83.31967
G1 X129.135 Y125.802 E83.47474
G1 X128.345 Y127.097 E83.63857
G1 X126.704 Y128.689 E83.88549
G1 X124.387 Y129.44 E84.14854
G1 X98.601 Y129.439 E86.93343
G1 X97.198 Y129.134 E87.08849
G1 X95.903 Y128.344 E87.25232
G1 X94.311 Y126.703 E87.49925
G1 X93.56 Y124.386 E87.7623
G1 X93.56 Y98.601 E90.54708
G1 X93.865 Y97.198 E90.70214
G1 X94.655 Y95.903 E90.86597
G0 F9000 X94.968 Y96.157
G1 F1800 X96.508 Y94.663 E91.0977
G1 X98.677 Y93.96 E91.34395
G1 X124.607 Y93.96 E94.14439
G1 X126.489 Y94.6 E94.35908
G1 X128.33 Y96.495 E94.64442
G1 X129.039 Y98.667 E94.89117
G1 X129.04 Y124.355 E97.66548
G1 X128.758 Y125.653 E97.80893
G1 X128.032 Y126.843 E97.95948
G1 X126.492 Y128.337 E98.19121
G1 X124.323 Y129.04 E98.43746
G1 X98.645 Y129.039 E101.21068
G1 X97.347 Y128.757 E101.35413
G1 X96.157 Y128.031 E101.50468
G1 X94.663 Y126.491 E101.73641
G1 X93.96 Y124.322 E101.98266
G1 X93.96 Y98.645 E104.75577
G1 X94.242 Y97.347 E104.89923
G1 X94.968 Y96.157 E105.04978
G0 F9000 X95.281 Y96.411
G1 F1800 X96.72 Y95.015 E105.2663
G1 X98.741 Y94.36 E105.49575
G1 X124.54 Y94.36 E108.28204
G1 X126.269 Y94.948 E108.47928
G1 X127.979 Y96.708 E108.7443
G1 X128.639 Y98.73 E108.97401
G1 X128.64 Y124.311 E111.73676
G1 X128.381 Y125.504 E111.86861
G1 X127.719 Y126.589 E112.00588
G1 X126.28 Y127.985 E112.2224
G1 X124.259 Y128.64 E112.45185
G1 X98.689 Y128.639 E115.21341
G1 X97.496 Y128.38 E115.34525
G1 X96.411 Y127.718 E115.48252
G1 X95.015 Y126.279 E115.69905
G1 X94.36 Y124.258 E115.9285
G1 X94.36 Y98.689 E118.68995
G1 X94.619 Y97.496 E118.82179
G1 X95.281 Y96.411 E118.95906
G0 F9000 X95.594 Y96.665
G1 F1800 X96.932 Y95.367 E119.16039
G1 X98.805 Y94.76 E119.37303
G1 X124.473 Y94.76 E122.14518
G1 X126.049 Y95.296 E122.32496
G1 X127.628 Y96.921 E122.56966
G1 X128.239 Y98.793 E122.78234
G1 X128.24 Y124.267 E125.53353
G1 X128.004 Y125.355 E125.65377
G1 X127.406 Y126.335 E125.77775
G1 X126.068 Y127.633 E125.97908
G1 X124.195 Y128.24 E126.19172
G1 X98.733 Y128.239 E128.94162
G1 X97.645 Y128.003 E129.06186
G1 X96.665 Y127.405 E129.18585
G1 X95.367 Y126.067 E129.38717
G1 X94.76 Y124.194 E129.59981
G1 X94.76 Y98.733 E132.3496
G1 X94.996 Y97.645 E132.46984
G1 X95.594 Y96.665 E132.59383
G0 F9000 X95.909 Y96.917
G1 F1800 X97.145 Y95.718 E132.7798
G1 X98.866 Y95.16 E132.9752
G1 X124.406 Y95.16 E135.73352
G1 X125.829 Y95.644 E135.89585
G1 X127.277 Y97.134 E136.12024
G1 X127.839 Y98.856 E136.31587
G1 X127.84 Y124.223 E139.0555
G1 X127.627 Y125.204 E139.16392
G1 X127.091 Y126.083 E139.27511
G1 X125.855 Y127.282 E139.46109
G1 X124.134 Y127.84 E139.65648
G1 X98.777 Y127.839 E142.39504
G1 X97.796 Y127.626 E142.50345
G1 X96.917 Y127.09 E142.61464
G1 X95.718 Y125.854 E142.80062
G1 X95.16 Y124.133 E142.99601
G1 X95.16 Y98.777 E145.73446
G1 X95.373 Y97.796 E145.84288
G1 X95.909 Y96.917 E145.95407
G0 F9000 X96.224 Y97.169
G1 F1800 X97.358 Y96.069 E146.12469
G1 X98.927 Y95.56 E146.30284
G1 X124.339 Y95.56 E149.04733
G1 X125.609 Y95.992 E149.19221
G1 X126.926 Y97.347 E149.39629
G1 X127.439 Y98.919 E149.57487
G1 X127.44 Y124.179 E152.30295
G1 X127.25 Y125.053 E152.39955
G1 X126.776 Y125.831 E152.49794
G1 X125.642 Y126.931 E152.66857
G1 X124.073 Y127.44 E152.84671
G1 X98.821 Y127.439 E155.57393
G1 X97.947 Y127.249 E155.67052
G1 X97.169 Y126.775 E155.76891
G1 X96.069 Y125.641 E155.93954
G1 X95.56 Y124.072 E156.11769
G1 X95.56 Y98.821 E158.84479
G1 X95.75 Y97.947 E158.94139
G1 X96.224 Y97.169 E159.03978
G0 F9000 X96.541 Y97.418
G1 F1800 X97.57 Y96.42 E159.1946
G1 X98.988 Y95.96 E159.3556
G1 X124.272 Y95.96 E162.08627
G1 X125.389 Y96.34 E162.21369
G1 X126.575 Y97.56 E162.39745
G1 X127.039 Y98.982 E162.559
G1 X127.04 Y124.135 E165.27552
G1 X126.873 Y124.902 E165.3603
G1 X126.459 Y125.582 E165.44628
G1 X125.43 Y126.58 E165.60109
G1 X124.012 Y127.04 E165.76209
G1 X98.865 Y127.039 E168.47797
G1 X98.098 Y126.872 E168.56275
G1 X97.418 Y126.458 E168.64873
G1 X96.42 Y125.429 E168.80354
G1 X95.96 Y124.011 E168.96454
G1 X95.96 Y98.865 E171.68031
G1 X96.127 Y98.098 E171.76509
G1 X96.541 Y97.418 E171.85107
G0 F9000 X96.858 Y97.667
G1 F1800 X97.782 Y96.771 E171.99007
G1 X99.049 Y96.36 E172.13393
G1 X124.205 Y96.36 E174.85078
G1 X125.169 Y96.688 E174.96075
G1 X126.224 Y97.773 E175.12419
G1 X126.639 Y99.045 E175.26869
G1 X126.64 Y124.091 E177.97366
G1 X126.496 Y124.751 E178.04662
G1 X126.142 Y125.333 E178.12019
G1 X125.218 Y126.229 E178.2592
G1 X123.951 Y126.64 E178.40305
G1 X98.909 Y126.639 E181.10759
G1 X98.249 Y126.495 E181.18054
G1 X97.667 Y126.141 E181.25411
G1 X96.771 Y125.217 E181.39312
G1 X96.36 Y123.95 E181.53697
G1 X96.36 Y98.909 E184.2414
G1 X96.504 Y98.249 E184.31436
G1 X96.858 Y97.667 E184.38793
G0 F9000 X97.175 Y97.916
G1 F1800 X97.994 Y97.122 E184.51113
G1 X99.11 Y96.76 E184.63784
G1 X124.138 Y96.76 E187.34086
G1 X124.949 Y97.036 E187.43338
G1 X125.873 Y97.986 E187.57651
G1 X126.239 Y99.108 E187.70397
G1 X126.24 Y124.047 E190.39738
G1 X126.119 Y124.6 E190.45852
G1 X125.825 Y125.084 E190.51968
G1 X125.006 Y125.878 E190.64287
G1 X123.89 Y126.24 E190.76958
G1 X98.953 Y126.239 E193.46278
G1 X98.4 Y126.118 E193.52392
G1 X97.916 Y125.824 E193.58508
G1 X97.122 Y125.005 E193.70827
G1 X96.76 Y123.889 E193.83498
G1 X96.76 Y98.953 E196.52807
G1 X96.881 Y98.4 E196.58921
G1 X97.175 Y97.916 E196.65037
G0 F9000 X97.453 Y98.203
G1 F1800 X98.205 Y97.474 E196.76348
G1 X99.172 Y97.16 E196.87328
G1 X105.107 Y97.16 E197.51426
G1 X105.359 Y97.203 E197.54187
G1 X105.624 Y97.16 E197.57087
G1 X124.071 Y97.16 E199.56314
G1 X124.729 Y97.384 E199.63821
G1 X125.522 Y98.199 E199.76102
G1 X125.839 Y99.171 E199.87144
G1 X125.84 Y124.047 E202.55805
G1 X125.73 Y124.507 E202.60913
G1 X125.547 Y124.797 E202.64616
G1 X124.795 Y125.526 E202.75928
G1 X123.828 Y125.84 E202.86908
G1 X117.889 Y125.84 E203.51049
G1 X117.636 Y125.797 E203.53821
G1 X117.375 Y125.839 E203.56676
G1 X98.953 Y125.839 E205.55634
G1 X98.493 Y125.729 E205.60742
G1 X98.203 Y125.546 E205.64445
G1 X97.474 Y124.794 E205.75757
G1 X97.16 Y123.827 E205.86737
G1 X97.16 Y117.893 E206.50824
G1 X97.203 Y117.64 E206.53596
G1 X97.16 Y117.375 E206.56495
G1 X97.16 Y105.393 E207.85901
G1 X97.204 Y105.139 E207.88685
G1 X97.161 Y104.877 E207.91552
G1 X97.16 Y98.953 E208.55531
G1 X97.27 Y98.493 E208.6064
G1 X97.453 Y98.203 E208.64343
G0 F9000 X97.731 Y98.49
G1 F1800 X98.416 Y97.826 E208.74646
G1 X99.234 Y97.56 E208.83936
G1 X105.107 Y97.56 E209.47364
G1 X105.357 Y97.61 E209.50118
G1 X105.624 Y97.56 E209.53052
G1 X111.371 Y97.56 E210.15119
G1 X111.607 Y97.605 E210.17714
G1 X111.86 Y97.56 E210.20489
G1 X117.621 Y97.56 E210.82708
G1 X117.857 Y97.605 E210.85303
G1 X118.11 Y97.56 E210.88078
G1 X124.004 Y97.56 E211.51733
G1 X124.509 Y97.732 E211.57495
G1 X125.171 Y98.412 E211.67744
G1 X125.439 Y99.234 E211.77082
G1 X125.439 Y105.109 E212.40532
G1 X125.393 Y105.349 E212.43171
G1 X125.44 Y105.611 E212.46046
G1 X125.44 Y111.372 E213.08265
G1 X125.395 Y111.608 E213.10859
G1 X125.44 Y111.86 E213.13624
G1 X125.44 Y117.623 E213.75864
G1 X125.395 Y117.859 E213.78459
G1 X125.44 Y118.11 E213.81213
G1 X125.44 Y124.007 E214.44901
G1 X125.381 Y124.311 E214.48245
G1 X125.269 Y124.51 E214.50711
G1 X124.584 Y125.174 E214.61015
G1 X123.766 Y125.44 E214.70304
G1 X117.889 Y125.44 E215.33776
G1 X117.639 Y125.39 E215.36529
G1 X117.375 Y125.439 E215.39429
G1 X111.628 Y125.44 E216.01497
G1 X111.389 Y125.394 E216.04125
G1 X111.139 Y125.439 E216.06869
G1 X105.377 Y125.44 E216.69098
G1 X105.133 Y125.393 E216.71782
G1 X104.875 Y125.439 E216.74612
G1 X98.993 Y125.439 E217.38138
G1 X98.689 Y125.38 E217.41483
G1 X98.49 Y125.268 E217.43949
G1 X97.826 Y124.583 E217.54252
G1 X97.56 Y123.765 E217.63542
G1 X97.56 Y117.893 E218.26959
G1 X97.61 Y117.642 E218.29723
G1 X97.56 Y117.375 E218.32657
G1 X97.56 Y111.629 E218.94714
G1 X97.605 Y111.392 E218.97319
G1 X97.56 Y111.139 E219.00095
G1 X97.56 Y105.393 E219.62151
G1 X97.611 Y105.141 E219.64928
G1 X97.561 Y104.877 E219.6783
G1 X97.56 Y98.993 E220.31377
G1 X97.619 Y98.689 E220.34722
G1 X97.731 Y98.49 E220.37188
G0 F9000 X98.009 Y98.777
G1 F1800 X98.627 Y98.178 E220.46483
G1 X99.297 Y97.96 E220.54092
G1 X105.107 Y97.96 E221.1684
G1 X105.351 Y98.021 E221.19557
G1 X105.624 Y97.96 E221.22578
G1 X111.371 Y97.96 E221.84645
G1 X111.603 Y98.015 E221.8722
G1 X111.86 Y97.96 E221.90059
G1 X117.621 Y97.96 E222.52278
G1 X117.853 Y98.015 E222.54853
G1 X118.11 Y97.96 E222.57691
G1 X124.004 Y97.96 E223.21346
G1 X124.222 Y98.011 E223.23764
G1 X124.82 Y98.625 E223.33021
G1 X125.039 Y99.297 E223.40654
G1 X125.039 Y105.109 E224.03424
G1 X124.982 Y105.344 E224.06035
G1 X125.04 Y105.611 E224.08986
G1 X125.04 Y111.372 E224.71205
G1 X124.985 Y111.604 E224.7378
G1 X125.04 Y111.86 E224.76608
G1 X125.04 Y117.623 E225.38848
G1 X124.985 Y117.854 E225.41413
G1 X125.04 Y118.11 E225.44241
G1 X125.04 Y124.007 E226.07928
G1 X124.991 Y124.223 E226.1032
G1 X124.373 Y124.822 E226.19615
G1 X123.703 Y125.04 E226.27225
G1 X117.889 Y125.04 E226.90016
G1 X117.645 Y124.979 E226.92732
G1 X117.375 Y125.039 E226.95719
G1 X111.628 Y125.04 E227.57787
G1 X111.394 Y124.984 E227.60386
G1 X111.139 Y125.039 E227.63203
G1 X105.377 Y125.04 E228.25433
G1 X105.138 Y124.982 E228.28089
G1 X104.875 Y125.039 E228.30995
G1 X98.993 Y125.039 E228.94521
G1 X98.777 Y124.99 E228.96913
G1 X98.178 Y124.372 E229.06208
G1 X97.96 Y123.702 E229.13817
G1 X97.96 Y117.893 E229.76554
G1 X98.021 Y117.648 E229.79281
G1 X97.96 Y117.375 E229.82302
G1 X97.96 Y111.629 E230.44359
G1 X98.015 Y111.397 E230.46934
G1 X97.96 Y111.139 E230.49783
G1 X97.96 Y105.393 E231.1184
G1 X98.022 Y105.147 E231.1458
G1 X97.961 Y104.877 E231.17569
G1 X97.96 Y98.993 E231.81117
G1 X98.009 Y98.777 E231.83509
G0 F9000 X98.36 Y98.993
G1 F1800 X98.838 Y98.53 E231.90696
G1 X99.36 Y98.36 E231.96625
G1 X105.107 Y98.36 E232.58692
G1 X105.338 Y98.44 E232.61332
G1 X105.624 Y98.36 E232.6454
G1 X111.371 Y98.36 E233.26607
G1 X111.592 Y98.433 E233.29121
G1 X111.86 Y98.36 E233.32121
G1 X117.621 Y98.36 E233.9434
G1 X117.842 Y98.433 E233.96853
G1 X118.11 Y98.36 E233.99853
G1 X124.004 Y98.36 E234.63508
G1 X124.469 Y98.838 E234.70711
G1 X124.639 Y99.36 E234.7664
G1 X124.639 Y105.109 E235.38729
G1 X124.564 Y105.334 E235.4129
G1 X124.64 Y105.611 E235.44392
G1 X124.64 Y111.372 E236.06611
G1 X124.568 Y111.593 E236.09121
G1 X124.64 Y111.86 E236.12108
G1 X124.64 Y117.623 E236.74348
G1 X124.568 Y117.843 E236.76848
G1 X124.64 Y118.11 E236.79835
G1 X124.64 Y124.007 E237.43523
G1 X124.162 Y124.47 E237.5071
G1 X123.64 Y124.64 E237.56639
G1 X117.889 Y124.64 E238.1875
G1 X117.658 Y124.56 E238.2139
G1 X117.375 Y124.639 E238.24563
G1 X111.628 Y124.64 E238.86631
G1 X111.406 Y124.567 E238.89155
G1 X111.139 Y124.639 E238.92141
G1 X105.377 Y124.64 E239.54371
G1 X105.151 Y124.563 E239.56949
G1 X104.875 Y124.639 E239.60041
G1 X98.993 Y124.639 E240.23567
G1 X98.53 Y124.161 E240.30754
G1 X98.36 Y123.639 E240.36683
G1 X98.36 Y117.893 E240.9874
G1 X98.441 Y117.661 E241.01394
G1 X98.36 Y117.375 E241.04604
G1 X98.36 Y111.629 E241.66661
G1 X98.433 Y111.408 E241.69174
G1 X98.36 Y111.139 E241.72185
G1 X98.36 Y105.393 E242.34241
G1 X98.441 Y105.161 E242.36895
G1 X98.361 Y104.877 E242.40082
G1 X98.36 Y98.993 E243.03629
G0 F9000 X99.16 Y99.261
G1 F1800 X99.36 Y99.16 E243.06049
G1 X104.975 Y99.16 E243.66691
G1 X105.076 Y99.357 E243.69082
G1 X105.09 Y100.479 E243.812
G1 X105.089 Y102.216 E243.9996
G1 X105.071 Y104.988 E244.29898
G1 X104.871 Y105.088 E244.32313
G1 X102.872 Y105.075 E244.53903
G1 X99.262 Y105.077 E244.92891
G1 X99.161 Y104.877 E244.95311
G1 X99.16 Y99.261 E245.55963
G0 F9000 X98.98 Y98.904
G1 F1800 X98.76 Y99.128 E245.59354
G1 X98.761 Y104.877 E246.21443
G1 X98.901 Y105.249 E246.25736
G1 X98.76 Y105.393 E246.27913
G1 X98.76 Y111.139 E246.8997
G1 X98.892 Y111.494 E246.9406
G1 X98.76 Y111.629 E246.96099
G1 X98.76 Y117.375 E247.58156
G1 X98.901 Y117.749 E247.62473
G1 X98.76 Y117.893 E247.64649
G1 X98.76 Y123.639 E248.26706
G1 X98.904 Y124.019 E248.31095
G1 X99.128 Y124.239 E248.34486
G1 X104.875 Y124.239 E248.96553
G1 X105.239 Y124.103 E249.0075
G1 X105.377 Y124.24 E249.0285
G1 X111.139 Y124.239 E249.6508
G1 X111.493 Y124.108 E249.69156
G1 X111.628 Y124.24 E249.71195
G1 X117.375 Y124.239 E250.33263
G1 X117.746 Y124.1 E250.37542
G1 X117.889 Y124.24 E250.39703
G1 X123.64 Y124.24 E251.01814
G1 X124.02 Y124.096 E251.06203
G1 X124.24 Y123.872 E251.09594
G1 X124.24 Y118.11 E251.71823
G1 X124.108 Y117.756 E251.75903
G1 X124.24 Y117.623 E251.77927
G1 X124.24 Y111.86 E252.40168
G1 X124.109 Y111.506 E252.44244
G1 X124.24 Y111.372 E252.46268
G1 X124.24 Y105.611 E253.08487
G1 X124.104 Y105.247 E253.12683
